icons/walking_fill.svg

<svg width="48" height="48" viewBox="0 0 48 48" fill="none" xmlns="http://www.w3.org/2000/svg">
<path d="M31.2502 8C31.2502 10.2091 29.4594 12 27.2502 12C25.0411 12 23.2502 10.2091 23.2502 8C23.2502 5.79086 25.0411 4 27.2502 4C29.4594 4 31.2502 5.79086 31.2502 8Z" fill="black"/>
<path d="M25.6928 28.3968L30.8857 33.5207C31.0848 33.7172 31.2405 33.9533 31.3427 34.2137L34.112 41.2693C34.5155 42.2975 34.0091 43.4582 32.9809 43.8617C31.9527 44.2653 30.7921 43.7589 30.3885 42.7307L27.7743 36.07L18.8455 27.2598C18.4087 26.8288 18.1939 26.2211 18.2629 25.6113L18.9781 19.2919C17.2542 21.0046 15.9244 23.4143 14.9053 26.607C14.5695 27.6592 13.4442 28.24 12.3919 27.9041C11.3396 27.5682 10.7589 26.4429 11.0948 25.3907C12.965 19.5312 16.0701 15.1454 21.2797 13.1341L21.3034 13.1251C22.6301 12.6321 24.0105 12.6718 25.2398 13.3074C26.4214 13.9182 27.2624 14.9731 27.8131 16.1554C28.0449 16.6532 28.2594 17.1184 28.4607 17.5551C28.9485 18.6129 29.3594 19.5041 29.7535 20.2873C30.3073 21.3877 30.7523 22.1161 31.1921 22.6285C31.5998 23.1034 32.0055 23.3952 32.5225 23.597C33.0782 23.8141 33.8572 23.9636 35.06 23.9997C36.1641 24.0328 37.0323 24.9547 36.9992 26.0588C36.966 27.1628 36.0442 28.031 34.9401 27.9979C33.4952 27.9546 32.2121 27.77 31.0673 27.323C29.8838 26.8608 28.9506 26.1584 28.157 25.2339C27.6565 24.6508 27.2176 23.9859 26.8062 23.2621L25.6928 28.3968Z" fill="black"/>
<path d="M18.2627 30.2198L21.5778 33.3994L20.0524 38.547C19.9343 38.9453 19.6952 39.297 19.3681 39.5531L14.2335 43.5755C13.364 44.2566 12.1069 44.1039 11.4257 43.2344C10.7445 42.3649 10.8972 41.1078 11.7668 40.4266L16.3987 36.7981L17.7944 32.0881L18.2627 30.2198Z" fill="black"/>
</svg>

<svg
  xmlns="http://www.w3.org/2000/svg"
  width="24"
  height="24"
  viewBox="0 0 24 24"
  fill="none"
  stroke="currentColor"
  stroke-width="2"
  stroke-linecap="round"
  stroke-linejoin="round"
>
  <path d="M31.25 8a4 4 0 1 1-8 0 4 4 0 0 1 8 0" />
  <path d="m25.693 28.397 5.193 5.124a2 2 0 0 1 .457.693l2.769 7.055a2 2 0 0 1-3.724 1.462l-2.614-6.661-8.928-8.81a2 2 0 0 1-.583-1.649l.715-6.32c-1.724 1.714-3.054 4.123-4.073 7.316a2 2 0 1 1-3.81-1.216c1.87-5.86 4.975-10.246 10.185-12.257l.023-.009c1.327-.493 2.707-.453 3.937.182 1.181.611 2.022 1.666 2.573 2.848q.346.746.648 1.4c.488 1.058.898 1.95 1.293 2.732.553 1.1.998 1.83 1.438 2.342.408.474.813.766 1.33.968.556.217 1.335.367 2.538.403a2 2 0 1 1-.12 3.998c-1.445-.043-2.728-.228-3.873-.675-1.183-.462-2.116-1.165-2.91-2.09-.5-.582-.94-1.247-1.35-1.97z" />
  <path d="m18.263 30.22 3.315 3.18-1.526 5.147a2 2 0 0 1-.684 1.006l-5.134 4.023a2 2 0 0 1-2.467-3.15l4.632-3.628 1.395-4.71z" />
</svg>
